X: 4101
T: LADS OF LEITH
R: Reel.
%R: reel
B: James Kerr "Merry Melodies" v.4 p.13 #101
Z: 2016 John Chambers <jc:trillian.mit.edu>
M: C|
L: 1/8
K: Em
%%slurgraces yes
%%graceslurs yes
E2 |\
B,EEF {EF}G2(FE) | A,DDE {DE}F2(ED) |\
GFE^D EFGA | Bedc B2 :|\
B2 |:\
eB B/B/B (gf)ed |
Adfa gfed |\
[1 eB B/B/B (gf)ed | gbag gfe^d :|\
[2 gbge fafd | gfe^d e2 |]

%%sep 1 1 500
%%sep 1 1 500

